X:1
T:Crestwood, 87.87 D
T:Crestwood, 87.87 D
T:John H. Kissinger, 1885
T:Public Domain Courtesy of the Cyber Hymnal™
C:John H. Kissinger, 1885
Z:Public Domain
Z:Courtesy of the Cyber Hymnal™
%%score ( 1 2 ) ( 3 4 )
L:1/8
Q:1/4=107
M:4/4
K:G
V:1 treble 
V:2 treble 
V:3 bass 
V:4 bass 
V:1
 D | [DG]2 [DG]2 [DB]3 [DB] | [Ec]2 [Ge]2 [Gd]3 [Ge] | [Gd]2 [GB]2 G2 [GB]2 | %4
 ([Ac]2 [GB]2) !fermata![FA]3 D | [DG]2 [DG]2 [DB]3 [DB] | [Ec]2 [Ge]2 [Gd]3 [Ge] | %7
 [Gd]2 [Dc]2 [DB]2 [EA]2 | ([DG]2 [DF]2) !fermata![DG]3 [DG] | e6 [Ge]2 | d6 [Ge]2 | %11
 [Gd]2 [GB]2 G2 [GB]2 | ([Ac]2 [GB]2) !fermata![FA]3 D | G6 [DB]2 | c6 [Ge]2 | %15
 [Gd]2 [Dc]2 [DB]2 [EA]2 | ([DG]2 [CF]2) !fermata![B,G]3 |] %17
V:2
 D | x8 | x8 | x4 G2 x2 | x7 D | x8 | x8 | x8 | D4 x4 | G2 G2 G2 x2 | G2 G2 G2 x2 | x4 G2 x2 | %12
 x7 D | D2 D2 D2 x2 | E2 E2 E2 x2 | x8 | x7 |] %17
V:3
 [G,B,] | [G,B,]2 [G,B,]2 G,3 G, | [C,G,]2 [C,C]2 [G,B,]3 [G,C] | [G,B,]2 [G,D]2 [B,D]2 [G,D]2 | %4
 [D,D]4 !fermata![D,D]3 [G,B,] | [G,B,]2 [G,B,]2 G,3 G, | [C,G,]2 [C,C]2 [G,B,]3 [G,C] | %7
 [G,B,]2 [F,A,]2 G,2 [C,C]2 | (B,2 A,C) !fermata![G,,B,]3 [G,B,] | [C,C]2 [C,C]2 [C,C]2 [C,C]2 | %10
 [G,B,]2 [G,B,]2 [G,B,]2 [G,C]2 | [G,B,]2 [G,D]2 [B,D]2 [G,D]2 | [D,D]4 !fermata![D,D]3 [G,B,] | %13
 [G,B,]2 [G,B,]2 [G,B,]2 G,2 | [C,G,]2 [C,G,]2 [C,G,]2 [C,C]2 | [G,B,]2 [F,A,]2 G,2 [C,C]2 | %16
 (B,2 A,2) !fermata![G,,G,]3 |] %17
V:4
 x | x4 G,3 G, | x8 | x8 | x8 | x4 G,3 G, | x8 | x4 G,2 x2 | D,4 x4 | x8 | x8 | x8 | x8 | x6 G,2 | %14
 x8 | x4 G,2 x2 | D,4 x3 |] %17

